z_dist/img/icons/web3/borrow_money.svg

<svg width="64" height="64" viewBox="0 0 64 64" fill="none" xmlns="http://www.w3.org/2000/svg">
<path d="M4.57153 36.5715H13.7144V54.8572H4.57153" stroke="#111111" stroke-width="2"/>
<path d="M13.7144 38.8572H22.8572C24.0696 38.8572 25.2324 39.3388 26.0897 40.1961C26.947 41.0534 27.4286 42.2162 27.4286 43.4286H37.7144C38.6237 43.4286 39.4957 43.7898 40.1387 44.4328C40.7817 45.0758 41.1429 45.9479 41.1429 46.8572C41.1429 47.7665 40.7817 48.6386 40.1387 49.2815C39.4957 49.9245 38.6237 50.2857 37.7144 50.2857H25.1429" stroke="#111111" stroke-width="2"/>
<path d="M41.1429 46.6285L48.7201 42.0571C49.7568 41.4395 50.9419 41.1155 52.1486 41.1199C53.0164 41.119 53.8759 41.2892 54.6779 41.6206C55.48 41.952 56.2089 42.4382 56.8229 43.0513L59.4286 45.7142L38.9372 58.0113C37.3862 58.9387 35.6129 59.4284 33.8058 59.4285C32.611 59.4275 31.4263 59.2107 30.3086 58.7885L13.7144 52.5713" stroke="#111111" stroke-width="2"/>
<path d="M38.8572 36.5715C47.6937 36.5715 54.8572 29.4081 54.8572 20.5715C54.8572 11.735 47.6937 4.57153 38.8572 4.57153C30.0206 4.57153 22.8572 11.735 22.8572 20.5715C22.8572 29.4081 30.0206 36.5715 38.8572 36.5715Z" stroke="#111111" stroke-width="2"/>
<path d="M36.9487 20.5713C35.9739 20.5179 35.0567 20.0931 34.3855 19.3842C33.7144 18.6753 33.3403 17.7361 33.3403 16.7599C33.3403 15.7837 33.7144 14.8446 34.3855 14.1356C35.0567 13.4267 35.9739 13.0019 36.9487 12.9485" stroke="#111111" stroke-width="2"/>
<path d="M40.7659 20.5715C41.7406 20.6249 42.6579 21.0498 43.329 21.7587C44.0002 22.4676 44.3742 23.4067 44.3742 24.383C44.3742 25.3592 44.0002 26.2983 43.329 27.0072C42.6579 27.7162 41.7406 28.141 40.7659 28.1944" stroke="#111111" stroke-width="2"/>
<path d="M38.8572 9.14282V12.9485" stroke="#111111" stroke-width="2"/>
<path d="M38.8572 28.1943V32.0001" stroke="#111111" stroke-width="2"/>
<path d="M36.9485 20.5715H40.7656" stroke="#111111" stroke-width="2"/>
<path d="M44.5713 14.8571C44.5713 14.8571 42.6628 12.9485 40.7656 12.9485H36.9485" stroke="#111111" stroke-width="2"/>
<path d="M33.1428 26.2856C33.1428 26.2856 35.0514 28.1942 36.9485 28.1942H40.7657" stroke="#111111" stroke-width="2"/>
</svg>

<svg width="64" height="64" fill="none" xmlns="http://www.w3.org/2000/svg"><path d="M4.572 36.572h9.142v18.285H4.572m9.142-16h9.143a4.571 4.571 0 014.572 4.572h10.285a3.428 3.428 0 110 6.857H25.143" stroke="#111" stroke-width="2"/><path d="M41.143 46.629l7.577-4.572a6.651 6.651 0 013.429-.937 6.605 6.605 0 014.674 1.931l2.606 2.663-20.492 12.297a10 10 0 01-5.131 1.417 9.92 9.92 0 01-3.497-.64l-16.595-6.217m25.143-15.999c8.837 0 16-7.164 16-16 0-8.837-7.163-16-16-16-8.836 0-16 7.163-16 16 0 8.836 7.164 16 16 16zm-1.908-16.001a3.817 3.817 0 010-7.623m3.817 7.624a3.817 3.817 0 010 7.622M38.857 9.143v3.805m0 15.246V32m-1.908-11.428h3.817" stroke="#111" stroke-width="2"/><path d="M44.571 14.857s-1.908-1.909-3.805-1.909h-3.817m-3.806 13.338s1.908 1.908 3.806 1.908h3.817" stroke="#111" stroke-width="2"/></svg>
